svg/emoji_u2721.svg

<svg enable-background="new 0 0 128 128" viewBox="0 0 128 128" xmlns="http://www.w3.org/2000/svg"><linearGradient id="a" x1="64" x2="64" y1="4.25" y2="124.41" gradientUnits="userSpaceOnUse"><stop stop-color="#B388FF" offset="0"/><stop stop-color="#A175FF" offset=".3773"/><stop stop-color="#7C4DFF" offset="1"/></linearGradient><path d="m116 124h-104c-4.42 0-8-3.58-8-8v-104c0-4.42 3.58-8 8-8h104c4.42 0 8 3.58 8 8v104c0 4.42-3.58 8-8 8z" fill="url(#a)"/><g opacity=".2"><path d="m116 7c2.76 0 5 2.24 5 5v104c0 2.76-2.24 5-5 5h-104c-2.76 0-5-2.24-5-5v-104c0-2.76 2.24-5 5-5h104m0-3h-104c-4.42 0-8 3.58-8 8v104c0 4.42 3.58 8 8 8h104c4.42 0 8-3.58 8-8v-104c0-4.42-3.58-8-8-8z" fill="#424242"/></g><g opacity=".2"><path d="m64 16c0.33 0 0.66 0.16 0.85 0.48l13.82 23.52h27.55c0.78 0 1.26 0.86 0.85 1.52l-13.74 22.48 13.74 22.48c0.41 0.67-0.07 1.52-0.85 1.52h-27.55l-13.81 23.52c-0.2 0.32-0.53 0.48-0.86 0.48s-0.66-0.16-0.85-0.48l-13.82-23.52h-27.55c-0.78 0-1.26-0.86-0.85-1.52l13.74-22.48-13.74-22.48c-0.41-0.66 0.07-1.52 0.85-1.52h27.55l13.81-23.52c0.2-0.32 0.53-0.48 0.86-0.48m-7.63 24h15.27l-7.64-13.41-7.63 13.41m33.45 18.25 7.48-12.25h-14.97l7.49 12.25m-37.12 23.75h22.6l11-18-11-18h-22.6l-11 18 11 18m-14.52-23.75 7.49-12.25h-14.97l7.48 12.25m44.15 23.75h14.97l-7.48-12.25-7.49 12.25m-51.63 0h14.97l-7.48-12.25-7.49 12.25m33.3 19.41 7.63-13.41h-15.26l7.63 13.41m0-88.41c-1.4 0-2.68 0.72-3.41 1.91l-0.02 0.04-12.95 22.05h-25.84c-1.45 0-2.78 0.78-3.49 2.04s-0.68 2.81 0.08 4.04l12.78 20.92-12.78 20.91c-0.75 1.23-0.78 2.78-0.08 4.04 0.71 1.27 2.05 2.05 3.49 2.05h25.83l12.94 22.04 0.02 0.04c0.73 1.2 2.01 1.91 3.41 1.91s2.68-0.72 3.41-1.91l0.02-0.04 12.97-22.04h25.83c1.45 0 2.78-0.78 3.49-2.04s0.68-2.81-0.08-4.04l-12.77-20.92 12.78-20.91c0.75-1.23 0.78-2.78 0.08-4.04-0.71-1.27-2.05-2.05-3.49-2.05h-25.84l-12.94-22.04-0.02-0.04c-0.74-1.2-2.02-1.92-3.42-1.92zm-2.48 24 2.48-4.35 2.48 4.35h-4.96zm26.16 12h4.27l-2.13 3.49-2.14-3.49zm-33.3 0h19.24l9.17 15-9.17 15h-19.24l-9.17-15 9.17-15zm-18.33 0h4.27l-2.13 3.49-2.14-3.49zm51.63 30 2.14-3.49 2.13 3.49h-4.27zm-51.63 0 2.13-3.49 2.14 3.49h-4.27zm25.48 12h4.95l-2.48 4.35-2.47-4.35z" fill="#424242"/></g><path d="M93.33,64l13.74-22.48c0.41-0.67-0.07-1.52-0.85-1.52H78.67L64.85,16.48 c-0.39-0.64-1.32-0.64-1.71,0L49.33,40H21.78c-0.78,0-1.26,0.86-0.85,1.52L34.67,64L20.93,86.48C20.52,87.14,21,88,21.78,88h27.55 l13.81,23.52c0.39,0.64,1.32,0.64,1.71,0L78.67,88h27.55c0.78,0,1.26-0.86,0.85-1.52L93.33,64z M97.3,46l-7.48,12.25L82.33,46H97.3 z M86.3,64l-11,18H52.7l-11-18l11-18h22.6L86.3,64z M64,26.59L71.64,40H56.36L64,26.59z M30.7,46h14.97l-7.48,12.25L30.7,46z M30.7,82l7.48-12.25L45.67,82H30.7z M64,101.41L56.37,88h15.27L64,101.41z M89.82,69.75L97.3,82H82.33L89.82,69.75z" fill="#FAFAFA"/></svg>

<svg width="128" height="128" style="enable-background:new 0 0 128 128;" xmlns="http://www.w3.org/2000/svg" xmlns:xlink="http://www.w3.org/1999/xlink">
  <g>
    <linearGradient id="SVGID_1_" gradientUnits="userSpaceOnUse" x1="64" x2="64" y1="4.25" y2="124.4088">
      <stop offset="0" style="stop-color:#B388FF"/>
      <stop offset="0.3773" style="stop-color:#A175FF"/>
      <stop offset="1" style="stop-color:#7C4DFF"/>
    </linearGradient>
    <path d="M116,124H12c-4.42,0-8-3.58-8-8V12c0-4.42,3.58-8,8-8h104c4.42,0,8,3.58,8,8v104 C124,120.42,120.42,124,116,124z" style="fill:url(#SVGID_1_);"/>
    <g style="opacity:0.2;">
      <path d="M116,7c2.76,0,5,2.24,5,5v104c0,2.76-2.24,5-5,5H12c-2.76,0-5-2.24-5-5V12c0-2.76,2.24-5,5-5H116 M116,4H12c-4.42,0-8,3.58-8,8v104c0,4.42,3.58,8,8,8h104c4.42,0,8-3.58,8-8V12C124,7.58,120.42,4,116,4L116,4z" style="fill:#424242;"/>
    </g>
    <g style="opacity:0.2;">
      <path d="M64,16c0.33,0,0.66,0.16,0.85,0.48L78.67,40h27.55c0.78,0,1.26,0.86,0.85,1.52L93.33,64 l13.74,22.48c0.41,0.67-0.07,1.52-0.85,1.52H78.67l-13.81,23.52C64.66,111.84,64.33,112,64,112c-0.33,0-0.66-0.16-0.85-0.48 L49.33,88H21.78c-0.78,0-1.26-0.86-0.85-1.52L34.67,64L20.93,41.52C20.52,40.86,21,40,21.78,40h27.55l13.81-23.52 C63.34,16.16,63.67,16,64,16 M56.37,40h15.27L64,26.59L56.37,40 M89.82,58.25L97.3,46H82.33L89.82,58.25 M52.7,82h22.6l11-18 l-11-18H52.7l-11,18L52.7,82 M38.18,58.25L45.67,46H30.7L38.18,58.25 M82.33,82H97.3l-7.48-12.25L82.33,82 M30.7,82h14.97 l-7.48-12.25L30.7,82 M64,101.41L71.63,88H56.37L64,101.41 M64,13c-1.4,0-2.68,0.72-3.41,1.91l-0.01,0.02l-0.01,0.02L47.62,37 H21.78c-1.45,0-2.78,0.78-3.49,2.04c-0.71,1.26-0.68,2.81,0.08,4.04L31.15,64L18.37,84.91c-0.75,1.23-0.78,2.78-0.08,4.04 C19,90.22,20.34,91,21.78,91h25.83l12.94,22.04l0.01,0.02l0.01,0.02c0.73,1.2,2.01,1.91,3.41,1.91s2.68-0.72,3.41-1.91l0.01-0.02 l0.01-0.02L80.38,91h25.83c1.45,0,2.78-0.78,3.49-2.04c0.71-1.26,0.68-2.81-0.08-4.04L96.85,64l12.78-20.91 c0.75-1.23,0.78-2.78,0.08-4.04C109,37.78,107.66,37,106.22,37H80.38L67.44,14.96l-0.01-0.02l-0.01-0.02 C66.68,13.72,65.4,13,64,13L64,13z M61.52,37L64,32.65L66.48,37H61.52L61.52,37z M87.68,49h4.27l-2.13,3.49L87.68,49L87.68,49z M54.38,49h19.24l9.17,15l-9.17,15H54.38l-9.17-15L54.38,49L54.38,49z M36.05,49h4.27l-2.13,3.49L36.05,49L36.05,49z M87.68,79 l2.14-3.49L91.95,79H87.68L87.68,79z M36.05,79l2.13-3.49L40.32,79H36.05L36.05,79z M61.53,91h4.95L64,95.35L61.53,91L61.53,91z" style="fill:#424242;"/>
    </g>
    <path d="M93.33,64l13.74-22.48c0.41-0.67-0.07-1.52-0.85-1.52H78.67L64.85,16.48 c-0.39-0.64-1.32-0.64-1.71,0L49.33,40H21.78c-0.78,0-1.26,0.86-0.85,1.52L34.67,64L20.93,86.48C20.52,87.14,21,88,21.78,88h27.55 l13.81,23.52c0.39,0.64,1.32,0.64,1.71,0L78.67,88h27.55c0.78,0,1.26-0.86,0.85-1.52L93.33,64z M97.3,46l-7.48,12.25L82.33,46H97.3 z M86.3,64l-11,18H52.7l-11-18l11-18h22.6L86.3,64z M64,26.59L71.64,40H56.36L64,26.59z M30.7,46h14.97l-7.48,12.25L30.7,46z M30.7,82l7.48-12.25L45.67,82H30.7z M64,101.41L56.37,88h15.27L64,101.41z M89.82,69.75L97.3,82H82.33L89.82,69.75z" style="fill:#FAFAFA;"/>
  </g>
</svg>
